!!!COM: Josephine Lang
!!!CNT: Deutsch
!!!TXO: Deutsch
!!!OTL: "Ob ich manchmal dein Gedenke"
!!!LYR: Reinhold
!!!OPS: Op. 27
!!!ONM: No. 3
!!!ENC: Alyona Dzerbina, phrasing by LVH
!!!YOR: Josephine Lang: Selected Songs
!!!YOR: Da Capo Press, 1982
!!!ODT: 1841/
!!NB: Vocal melody only encoded.
**kern
*staff1
*clefG2
*k[b-e-a-]
*M3/4
*MM[Langsam und Ausdrucksvoll]
=1
{8.g
16g
8g
8g
8e-
8b-
=2
(4b-
8.dd)
16cc
4b-}
=3
4r
4r
{8b-
8e-
=4
8f
16r
16g
8.a-
16g
4g}
=5
{(8.g
16g
8g
8g
8e-
8g)
=6
(4cc
8a-)
8f
[4ff
=7
8ff]
8ff
8.ee-
16dd
8.dd
16cc
=8
2b-}
4r
=9
{8.b-
16g
4g
8r
8g
=10
8.b-
16a-
(4a-
8g)
8f
=11
(8e-
16r
16d
8f
8e-
8.a-
16g)
=12
(4g
4f)}
4r
=13
{(4b-
8g)
16r
16g
8g
8g
=14
8.b-
16a-
8a-
16b-
16a-
8g
8f
=15
8.e-
16g
(8b-
8cc
8b-
8g)
=16
(4g
4f)}
4r
=17
{8.g
16g
8g
8g
8e-
8b-
=18
4b-
8.dd
16cc
4b-}
=19
4r
4r
{8b-
8e-
=20
8f
8g
8.a-
16g
4g}
=21
4r
{8e-
8g
8b-
8ee-
=22
8.gg
16ff
2ee-}
=23
4r
{(4ee-
8cc
8a-
=24
4g
4f)}
4r
=25
4r
{4b-
8r
8b-
=26
8.b-
16cc
2b-}
=27
4r
{4.cc
8ff
=28
2ff
4b-}
=29
2.r
=30
{(8ee-
8cc
4a-
4a-)
=31
(2a-
8.d)
16e-
=32
2.e-}
=33
2.r
=34
2.r
=35
2.r
=36
2.r
==
*-
